X:1
T:Title
%%score { ( 1 3 ) | ( 2 4 ) }
L:1/8
Q:1/4=100
M:4/4
K:Ab
V:1 treble nm="Grand Piano"
V:3 treble 
V:2 bass 
V:4 bass 
V:1
 [CE]2 [CE][DF] [CE]2 [CA][DB] | [Ec]2 [Ec]2 [DB]<[CA] [DF][EG] | [DA]2 [FA][FB] [FA]2 [DF]2 | %3
w: R.~E.~Winsett * * * * *|||
 [CE]6 z2 | [CE]2 [CE][DF] [CE]2 [CEA]2 | [EAc]2 [EAc]>[EAc] [DGB]<A AB | c2 cc c2 B2 | [CA]6 z2 | %8
w: |||||
 e2 cd e2 AB | c2 c2 A2 FG | [FA]2 [FA][FB] [FA]2 [DF]2 | [CE]6 z2 | [CE]2 [A,C][B,D] [CE]3 [EA] | %13
w: |||||
 [FA]2 [DF][EG] [FA]2 [Ad][Af] | [Ae]2 [EAc][CA] [EAc]2 [DGB]2 |[M:3/4] A2- [FA-][FA-] [EA]2 |] %16
w: |||
V:2
 [A,,A,]2 [A,,A,][A,,A,] [A,,A,]2 [A,,E,][A,,E,] | %1
 [A,,A,]2 [A,,A,]2 [A,,E,]<[A,,E,] [A,,A,][A,,G,] | [D,F,]2 [D,D][D,D] [D,D]2 [D,A,]2 | %3
 [A,,A,]6 z2 | [A,,A,]2 [A,,A,][A,,A,] [A,,A,]2 A,,2 | A,2 A,>E, E,<[F,C] [F,A,C][=E,A,=D] | %6
 [E,A,E]2 [E,A,E][E,A,E] [E,A,E]2 [E,G,D]2 | [A,,A,]6 z2 | %8
 [A,CA]2 [A,E][A,B,E] [A,CA]2 [A,CE][A,CE] | [A,EA]2 [A,EA]2[K:bass] [A,CE]2 [A,D][A,E] | %10
 [D,A,]2 [D,D][D,D] [D,D]2 [D,A,]2 | [A,,A,]6 z2 | [A,,A,]2 [A,,E,][A,,E,] [A,,A,]3 [C,A,] | %13
 [D,A,]2 [D,A,][D,A,] [D,C]2 [F,C][D,D] | [E,C]2 E,F, E,2 E,2 |[M:3/4] z2 DD C2 |] %16
V:3
 x8 | x8 | x8 | x8 | x8 | x8 | x8 | x8 | x8 | x8 | x8 | x8 | x8 | x8 | x8 |[M:3/4] C2 z2 z2 |] %16
V:4
 x8 | x8 | x8 | x8 | x8 | x8 | x8 | x8 | x8 | x4[K:bass] x4 | x8 | x8 | x8 | x8 | x8 | %15
[M:3/4] A,,6 |] %16

